img/git.svg

<svg width="110" height="126" viewBox="0 0 110 126" fill="none" xmlns="http://www.w3.org/2000/svg">
<g clip-path="url(#clip0_1_47)">
<path d="M107.928 57.3879L59.9098 2.37609C57.1464 -0.792029 52.6614 -0.792029 49.8937 2.37609L39.9246 13.8009L52.5726 28.292C55.5129 27.1551 58.8827 27.9177 61.2253 30.6017C62.3417 31.8819 63.1212 33.4963 63.4744 35.2602C63.8277 37.0241 63.7406 38.8663 63.223 40.5761L75.4127 54.5442C78.3617 53.3794 81.7655 54.132 84.1195 56.8349C87.4126 60.6049 87.4126 66.7166 84.1195 70.4886C83.3369 71.3856 82.4077 72.0973 81.385 72.5828C80.3623 73.0683 79.2662 73.3182 78.1592 73.3182C77.0522 73.3182 75.956 73.0683 74.9333 72.5828C73.9107 72.0973 72.9815 71.3856 72.1989 70.4886C71.0231 69.1407 70.2216 67.4244 69.8953 65.5557C69.569 63.6871 69.7324 61.7496 70.365 59.9871L58.9977 46.9623L58.9959 81.2396C59.8207 81.705 60.5737 82.3213 61.2253 83.0642C64.5176 86.8342 64.5176 92.9439 61.2253 96.7219C57.9331 100.492 52.597 100.492 49.3082 96.7219C46.0168 92.9449 45.7468 86.8352 49.0373 83.0642C49.851 82.133 50.6533 81.4293 51.5245 80.9581V46.3634C50.6533 45.8923 49.8518 45.1936 49.0364 44.2563C46.5439 41.4016 46.0778 37.2094 47.3567 33.6999L34.957 19.4134L2.06585 57.1334C-0.700204 60.3045 -0.68278 65.443 2.08327 68.6121L50.1088 123.624C52.8731 126.792 57.3615 126.792 60.1302 123.624L107.924 68.8676C110.69 65.6975 110.693 60.556 107.928 57.3879Z" fill="#F34F29"/>
</g>
<defs>
<clipPath id="clip0_1_47">
<rect width="110" height="126" fill="white"/>
</clipPath>
</defs>
</svg>

<svg xmlns="http://www.w3.org/2000/svg" width="110" height="126" fill="none"><g clip-path="url(#a)"><path fill="#F34F29" d="M107.928 57.388 59.91 2.376c-2.764-3.168-7.249-3.168-10.016 0l-9.97 11.425 12.649 14.491c2.94-1.137 6.31-.374 8.652 2.31 1.117 1.28 1.896 2.894 2.25 4.658a10.984 10.984 0 0 1-.252 5.316l12.19 13.968c2.949-1.165 6.353-.412 8.707 2.29 3.293 3.77 3.293 9.883 0 13.655a8.453 8.453 0 0 1-2.735 2.094 7.507 7.507 0 0 1-3.226.735 7.507 7.507 0 0 1-3.226-.735 8.454 8.454 0 0 1-2.734-2.094c-1.176-1.348-1.977-3.065-2.304-4.933a10.975 10.975 0 0 1 .47-5.569L58.998 46.962l-.002 34.278a8.587 8.587 0 0 1 2.23 1.824c3.292 3.77 3.292 9.88 0 13.658-3.293 3.77-8.629 3.77-11.918 0-3.291-3.777-3.561-9.887-.27-13.658.813-.931 1.615-1.635 2.487-2.106V46.363c-.872-.47-1.673-1.17-2.489-2.107-2.492-2.854-2.958-7.047-1.68-10.556L34.958 19.413 2.066 57.133c-2.766 3.171-2.749 8.31.017 11.48l48.026 55.011c2.764 3.168 7.252 3.168 10.021 0l47.794-54.756c2.766-3.17 2.769-8.312.004-11.48Z"/></g><defs><clipPath id="a"><path fill="#fff" d="M0 0h110v126H0z"/></clipPath></defs></svg>
